Origami/64x64/apps/fluxgui.svg

<svg width="64" height="64" version="1" xmlns="http://www.w3.org/2000/svg">
 <path d="M 59.9572,31.828417 A 27.9996,27.9996 0 0 1 31.9996,59.000029 27.9996,27.9996 0 0 1 4.0439998,32.172412 27.9996,27.9996 0 0 0 4.0000004,33.0004 27.9996,27.9996 0 0 0 31.9996,61 27.9996,27.9996 0 0 0 59.9992,33.0004 27.9996,27.9996 0 0 0 59.9572,31.828417 Z" style="opacity:.2"/>
 <path d="m31.998047 4a27.9996 27.9996 0 0 0 -27.998047 28 27.9996 27.9996 0 0 0 1.1914062 8h53.626953a27.9996 27.9996 0 0 0 1.179688 -8 27.9996 27.9996 0 0 0 -27.998047 -28h-0.001953zm25.986328 38.373047a27.9996 27.9996 0 0 1 -0.806641 1.802734 27.9996 27.9996 0 0 0 0.806641 -1.802734z" style="fill:#ffc567"/>
 <path d="m5.1913834 40.000315a27.9996 27.9996 0 0 0 26.807617 19.999714 27.9996 27.9996 0 0 0 26.819616 -19.999714h-53.627233z" style="fill:#4a78c9"/>
 <circle cx="41.999" cy="23.001" r="8" style="opacity:.2"/>
 <circle cx="41.999" cy="22.001" r="8" style="fill:#ff7e30"/>
 <path d="m32 4c-15.511778 0-28 12.488222-28 28 0 0.114 0.0113269 0.225461 0.0175781 0.337891 0.3505256-15.202453 12.692714-27.337891 27.982422-27.337891s27.631896 12.135438 27.982422 27.337891c0.006132-0.11243 0.017578-0.223891 0.017578-0.337891 0-15.511778-12.488222-28-28-28zm-27.441406 35.609375c0.0292 0.143998 0.0740692 0.287643 0.1054687 0.431641-0.0313995-0.143998-0.0762691-0.287643-0.1054687-0.431641zm0.6484374 0.550781c0.0871988 0.287996 0.1969701 0.567567 0.2929688 0.851563-0.0959987-0.283996-0.20577-0.563567-0.2929688-0.851563zm-0.6484374 0.449219c0.0291994 0.143998 0.0740697 0.287643 0.1054687 0.431641-0.0313995-0.143998-0.0762687-0.287643-0.1054687-0.431641zm0.6484374 0.550781c0.0871988 0.287996 0.1969698 0.567567 0.2929688 0.851563-0.0959987-0.283996-0.2057697-0.563567-0.2929688-0.851563zm0 1c0.0871988 0.287996 0.1969701 0.567567 0.2929688 0.851563-0.0959987-0.283996-0.20577-0.563567-0.2929688-0.851563zm0 1c0.0871988 0.287996 0.1969698 0.567567 0.2929688 0.851563-0.0959987-0.283996-0.2057697-0.563567-0.2929688-0.851563zm0.875 1.453125c0.1267982 0.309995 0.2690521 0.617833 0.40625 0.923828-0.1375979-0.305995-0.2792517-0.613833-0.40625-0.923828zm0 1c0.1269983 0.309995 0.2686521 0.617833 0.40625 0.923828-0.1371979-0.305995-0.2794518-0.613833-0.40625-0.923828zm1.078125 1.320313c0.1609978 0.309996 0.3278024 0.613974 0.5 0.917968-0.1723975-0.303995-0.3388022-0.607972-0.5-0.917968zm0 1c0.1611978 0.309996 0.3276025 0.613973 0.5 0.917968-0.1721976-0.303994-0.3390022-0.607972-0.5-0.917968zm1.3085938 1.246094c0.1831974 0.283996 0.3653965 0.56966 0.5585938 0.847656-0.1933972-0.277996-0.3751964-0.56366-0.5585938-0.847656zm0 1c0.1833974 0.283996 0.3651965 0.56966 0.5585938 0.847656-0.1931973-0.277996-0.3753964-0.56366-0.5585938-0.847656zm1.5078125 1.111328c0.1973975 0.249997 0.3877535 0.507957 0.5937495 0.751953-0.206196-0.243996-0.396152-0.501956-0.5937495-0.751953zm0 1c0.1975975 0.249997 0.3875535 0.507957 0.5937495 0.751953-0.205996-0.243996-0.396352-0.501956-0.5937495-0.751953zm1.8124995 1.091796c0.162998 0.169998 0.317377 0.349628 0.484376 0.515626-0.167199-0.165999-0.321178-0.345628-0.484376-0.515626zm0 1c0.163198 0.169998 0.317177 0.349627 0.484376 0.515626-0.166999-0.165998-0.321378-0.345628-0.484376-0.515626zm4.390626 0.742188c0.250796 0.171998 0.513135 0.320378 0.769531 0.484375-0.256596-0.163997-0.518734-0.312377-0.769531-0.484375zm0 1c0.250797 0.171998 0.512935 0.320378 0.769531 0.484375-0.256396-0.163997-0.518735-0.312377-0.769531-0.484375zm0 1c0.250796 0.171997 0.512935 0.320377 0.769531 0.484375-0.256396-0.163998-0.518734-0.312378-0.769531-0.484375zm2.167968 0.333984c0.293996 0.161998 0.598243 0.312799 0.898438 0.466797-0.300595-0.153998-0.604242-0.302799-0.898438-0.466797zm-2.167968 0.666016c0.250797 0.171997 0.513135 0.320377 0.769531 0.484375-0.256596-0.163998-0.518735-0.312378-0.769531-0.484375zm9.425781 1.121094c0.411995 0.096 0.818287 0.195439 1.238281 0.273437-0.417994-0.078-0.826286-0.177438-1.238281-0.273437zm-7.257813 0.21289c0.294196 0.163997 0.597843 0.312799 0.898438 0.466797-0.300195-0.153998-0.604442-0.3048-0.898438-0.466797zm7.257813 0.78711c0.411995 0.095999 0.820287 0.195437 1.238281 0.273437-0.419994-0.077998-0.826286-0.177437-1.238281-0.273437zm-2.515625 0.292968c0.339996 0.111998 0.681348 0.222221 1.027344 0.324219-0.347996-0.101998-0.687348-0.212221-1.027344-0.324219zm4.126953 0.046876c0.70999 0.121997 1.426307 0.223015 2.154297 0.291015-0.72799-0.067999-1.444307-0.169018-2.154297-0.291015zm-6.541016 0.027343c0.309996 0.135998 0.621504 0.26072 0.9375 0.386719-0.315996-0.125999-0.629504-0.250721-0.9375-0.386719zm4.929688 0.632813c0.411995 0.096 0.820287 0.195438 1.238281 0.273437-0.419994-0.078-0.826286-0.177439-1.238281-0.273437zm-2.515625 0.292968c0.339996 0.111998 0.679348 0.222221 1.027344 0.324219-0.345996-0.101998-0.687348-0.212221-1.027344-0.324219zm2.515625 0.707032c0.411995 0.095998 0.818287 0.195437 1.238281 0.273437-0.417994-0.077999-0.826286-0.177437-1.238281-0.273437zm1.611328 0.339844c0.70999 0.121997 1.426307 0.223015 2.154297 0.291015-0.72799-0.067999-1.444307-0.169018-2.154297-0.291015z" style="fill:#ffffff;opacity:.2"/>
</svg>

<svg xmlns="http://www.w3.org/2000/svg" width="64" height="64" version="1">
 <path style="opacity:0.2" d="M 59.9572,31.828417 A 27.9996,27.9996 0 0 1 31.9996,59.000029 27.9996,27.9996 0 0 1 4.0439998,32.172412 27.9996,27.9996 0 0 0 4.0000004,33.0004 27.9996,27.9996 0 0 0 31.9996,61 27.9996,27.9996 0 0 0 59.9992,33.0004 27.9996,27.9996 0 0 0 59.9572,31.828417 Z"/>
 <path style="fill:#ffc567" d="M 31.998047 4 A 27.9996 27.9996 0 0 0 4 32 A 27.9996 27.9996 0 0 0 5.1914062 40 L 58.818359 40 A 27.9996 27.9996 0 0 0 59.998047 32 A 27.9996 27.9996 0 0 0 32 4 L 31.998047 4 z M 57.984375 42.373047 A 27.9996 27.9996 0 0 1 57.177734 44.175781 A 27.9996 27.9996 0 0 0 57.984375 42.373047 z"/>
 <path style="fill:#4a78c9" d="M 5.1913834,40.000315 A 27.9996,27.9996 0 0 0 31.999,60.000029 27.9996,27.9996 0 0 0 58.818616,40.000315 l -53.6272326,0 z"/>
 <circle style="opacity:0.2" cx="41.999" cy="23.001" r="8"/>
 <circle style="fill:#ff7e30" cx="41.999" cy="22.001" r="8"/>
 <path style="opacity:0.2;fill:#ffffff" d="M 32 4 C 16.488222 4 4 16.488222 4 32 C 4 32.114 4.0113269 32.225461 4.0175781 32.337891 C 4.3681037 17.135438 16.710292 5 32 5 C 47.289708 5 59.631896 17.135438 59.982422 32.337891 C 59.988554 32.225461 60 32.114 60 32 C 60 16.488222 47.511778 4 32 4 z M 4.5585938 39.609375 C 4.5877938 39.753373 4.632663 39.897018 4.6640625 40.041016 C 4.632663 39.897018 4.5877934 39.753373 4.5585938 39.609375 z M 5.2070312 40.160156 C 5.29423 40.448152 5.4040013 40.727723 5.5 41.011719 C 5.4040013 40.727723 5.29423 40.448152 5.2070312 40.160156 z M 4.5585938 40.609375 C 4.5877932 40.753373 4.6326635 40.897018 4.6640625 41.041016 C 4.632663 40.897018 4.5877938 40.753373 4.5585938 40.609375 z M 5.2070312 41.160156 C 5.29423 41.448152 5.404001 41.727723 5.5 42.011719 C 5.4040013 41.727723 5.2942303 41.448152 5.2070312 41.160156 z M 5.2070312 42.160156 C 5.29423 42.448152 5.4040013 42.727723 5.5 43.011719 C 5.4040013 42.727723 5.29423 42.448152 5.2070312 42.160156 z M 5.2070312 43.160156 C 5.29423 43.448152 5.404001 43.727723 5.5 44.011719 C 5.4040013 43.727723 5.2942303 43.448152 5.2070312 43.160156 z M 6.0820312 44.613281 C 6.2088294 44.923276 6.3510833 45.231114 6.4882812 45.537109 C 6.3506833 45.231114 6.2090295 44.923276 6.0820312 44.613281 z M 6.0820312 45.613281 C 6.2090295 45.923276 6.3506833 46.231114 6.4882812 46.537109 C 6.3510833 46.231114 6.2088294 45.923276 6.0820312 45.613281 z M 7.1601562 46.933594 C 7.321154 47.24359 7.4879586 47.547568 7.6601562 47.851562 C 7.4877587 47.547567 7.321354 47.24359 7.1601562 46.933594 z M 7.1601562 47.933594 C 7.321354 48.24359 7.4877587 48.547567 7.6601562 48.851562 C 7.4879586 48.547568 7.321154 48.24359 7.1601562 47.933594 z M 8.46875 49.179688 C 8.6519474 49.463684 8.8341465 49.749348 9.0273438 50.027344 C 8.8339466 49.749348 8.6521474 49.463684 8.46875 49.179688 z M 8.46875 50.179688 C 8.6521474 50.463684 8.8339465 50.749348 9.0273438 51.027344 C 8.8341465 50.749348 8.6519474 50.463684 8.46875 50.179688 z M 9.9765625 51.291016 C 10.17396 51.541013 10.364316 51.798973 10.570312 52.042969 C 10.364116 51.798973 10.17416 51.541013 9.9765625 51.291016 z M 9.9765625 52.291016 C 10.17416 52.541013 10.364116 52.798973 10.570312 53.042969 C 10.364316 52.798973 10.17396 52.541013 9.9765625 52.291016 z M 11.789062 53.382812 C 11.95206 53.55281 12.106439 53.73244 12.273438 53.898438 C 12.106239 53.732439 11.95226 53.55281 11.789062 53.382812 z M 11.789062 54.382812 C 11.95226 54.55281 12.106239 54.732439 12.273438 54.898438 C 12.106439 54.73244 11.95206 54.55281 11.789062 54.382812 z M 16.179688 55.125 C 16.430484 55.296998 16.692823 55.445378 16.949219 55.609375 C 16.692623 55.445378 16.430485 55.296998 16.179688 55.125 z M 16.179688 56.125 C 16.430485 56.296998 16.692623 56.445378 16.949219 56.609375 C 16.692823 56.445378 16.430484 56.296998 16.179688 56.125 z M 16.179688 57.125 C 16.430484 57.296997 16.692623 57.445377 16.949219 57.609375 C 16.692823 57.445377 16.430485 57.296997 16.179688 57.125 z M 18.347656 57.458984 C 18.641652 57.620982 18.945899 57.771783 19.246094 57.925781 C 18.945499 57.771783 18.641852 57.622982 18.347656 57.458984 z M 16.179688 58.125 C 16.430485 58.296997 16.692823 58.445377 16.949219 58.609375 C 16.692623 58.445377 16.430484 58.296997 16.179688 58.125 z M 25.605469 59.246094 C 26.017464 59.342094 26.423756 59.441533 26.84375 59.519531 C 26.425756 59.441531 26.017464 59.342093 25.605469 59.246094 z M 18.347656 59.458984 C 18.641852 59.622981 18.945499 59.771783 19.246094 59.925781 C 18.945899 59.771783 18.641652 59.620981 18.347656 59.458984 z M 25.605469 60.246094 C 26.017464 60.342093 26.425756 60.441531 26.84375 60.519531 C 26.423756 60.441533 26.017464 60.342094 25.605469 60.246094 z M 23.089844 60.539062 C 23.42984 60.65106 23.771192 60.761283 24.117188 60.863281 C 23.769192 60.761283 23.42984 60.65106 23.089844 60.539062 z M 27.216797 60.585938 C 27.926787 60.707935 28.643104 60.808953 29.371094 60.876953 C 28.643104 60.808954 27.926787 60.707935 27.216797 60.585938 z M 20.675781 60.613281 C 20.985777 60.749279 21.297285 60.874001 21.613281 61 C 21.297285 60.874001 20.983777 60.749279 20.675781 60.613281 z M 25.605469 61.246094 C 26.017464 61.342094 26.425756 61.441532 26.84375 61.519531 C 26.423756 61.441531 26.017464 61.342092 25.605469 61.246094 z M 23.089844 61.539062 C 23.42984 61.65106 23.769192 61.761283 24.117188 61.863281 C 23.771192 61.761283 23.42984 61.65106 23.089844 61.539062 z M 25.605469 62.246094 C 26.017464 62.342092 26.423756 62.441531 26.84375 62.519531 C 26.425756 62.441532 26.017464 62.342094 25.605469 62.246094 z M 27.216797 62.585938 C 27.926787 62.707935 28.643104 62.808953 29.371094 62.876953 C 28.643104 62.808954 27.926787 62.707935 27.216797 62.585938 z"/>
</svg>
